X:613
T:Craigie Hills
H: Created 2014-09-30 /  Modified 2014-09-30
M:4/4
L:1/8
R: song
K: Cmaj
ed|"C"cAGAc3d|e2ed e2g2| "F"a2-ag a2e2|"am"dc A4-Ag|
"F"a2-ae"G"g2a2|"am"c'4"G"bag2| "C"e2ede2g2| "F"a6ga|
"C"c'3d' c'aga|"F"-a4c'2ag|"C"e2 ed cded|cG "am"A4GA|
"F"c2cd "G"eg3| "am"a2ga "C"e2ed|"F"c2cd "G"c2B2| "C"c8|

